packages/foundations/assets/icons/functional/images/communication/speech_bubble_exclamation_mark_24_filled.svg

<svg xmlns="http://www.w3.org/2000/svg" width="20" height="20" fill="none"><path fill="#1A1C1F" fill-rule="evenodd" d="M4.117 2.048a2.56 2.56 0 0 0-1.384.75c-.325.33-.465.549-.612.96l-.104.292v13.2l.077.156c.234.477.778.704 1.256.526.189-.07.28-.154 1.619-1.486.781-.777 1.426-1.416 1.433-1.42s2.152-.016 4.765-.026c5.355-.021 4.859.005 5.466-.292.268-.13.364-.201.618-.456a2.4 2.4 0 0 0 .654-1.085l.078-.25V4.083l-.076-.264a2.35 2.35 0 0 0-.656-1.103c-.242-.242-.357-.329-.584-.442-.566-.281.037-.256-6.5-.263-4.61-.004-5.865.003-6.05.037M11 6.5V9H9V4h2zm-.507 3.617c.232.106.417.278.535.5.079.148.089.203.089.5s-.01.351-.089.5c-.305.572-.986.792-1.533.494-.447-.244-.688-.807-.549-1.284a1.107 1.107 0 0 1 1.547-.71"/></svg>

<svg width="20" height="20" viewBox="0 0 20 20" fill="none" xmlns="http://www.w3.org/2000/svg"><path d="M4.117 2.048 C 3.592 2.144,3.131 2.394,2.733 2.798 C 2.408 3.128,2.268 3.347,2.121 3.758 L 2.017 4.050 2.017 10.650 L 2.017 17.250 2.094 17.406 C 2.328 17.883,2.872 18.110,3.350 17.932 C 3.539 17.862,3.630 17.778,4.969 16.446 C 5.750 15.669,6.395 15.030,6.402 15.026 C 6.410 15.021,8.554 15.010,11.167 15.000 C 16.522 14.979,16.026 15.005,16.633 14.708 C 16.901 14.578,16.997 14.507,17.251 14.252 C 17.584 13.919,17.763 13.621,17.905 13.167 L 17.983 12.917 17.983 8.500 L 17.983 4.083 17.907 3.819 C 17.775 3.364,17.592 3.056,17.251 2.716 C 17.009 2.474,16.894 2.387,16.667 2.274 C 16.101 1.993,16.704 2.018,10.167 2.011 C 5.557 2.007,4.302 2.014,4.117 2.048 M11.000 6.500 L 11.000 9.000 10.000 9.000 L 9.000 9.000 9.000 6.500 L 9.000 4.000 10.000 4.000 L 11.000 4.000 11.000 6.500 M10.493 10.117 C 10.725 10.223,10.910 10.395,11.028 10.617 C 11.107 10.765,11.117 10.820,11.117 11.117 C 11.117 11.414,11.107 11.468,11.028 11.617 C 10.723 12.189,10.042 12.409,9.495 12.111 C 9.048 11.867,8.807 11.304,8.946 10.827 C 9.142 10.152,9.854 9.825,10.493 10.117 " fill="#1A1C1F" stroke="none" fill-rule="evenodd"></path></svg>
